img/orderStage1.svg

<svg fill="none" height="70" viewBox="0 0 70 70" width="70" xmlns="http://www.w3.org/2000/svg"><g fill="#66c4ff"><path d="m63.1641 32.2656c.7546 0 1.3671-.6125 1.3671-1.3672 0-.7546-.6125-1.3672-1.3671-1.3672-.7547 0-1.3672.6126-1.3672 1.3672 0 .7547.6125 1.3672 1.3672 1.3672z"/><path d="m35 45.9375c-.7546 0-1.3672.6126-1.3672 1.3672s.6126 1.3672 1.3672 1.3672 1.3672-.6126 1.3672-1.3672-.6126-1.3672-1.3672-1.3672z"/><path d="m21.3281 21.3282h1.6134l2.0743 10.3746c.3824 1.9103 2.0743 3.2972 4.023 3.2972h11.9224c1.9487 0 3.6406-1.3869 4.023-3.2978l2.0743-10.374h1.6134c.7551 0 1.3672-.6121 1.3672-1.3672 0-.7552-.6121-1.3672-1.3672-1.3672-1.1071 0-5.5019 0-7.2178 0l-2.4225-7.268c-.2393-.7167-1.0131-1.1039-1.7293-.8652-.7167.2393-1.1039 1.0131-.8652 1.7293l2.1347 6.4039h-7.1436l2.1347-6.4039c.2387-.7162-.1485-1.49-.8652-1.7293-.7162-.2387-1.4906.1485-1.7293.8652l-2.4225 7.268c-1.1968 0-5.646 0-7.2178 0-.7551 0-1.3672.612-1.3672 1.3672 0 .7551.6121 1.3672 1.3672 1.3672zm22.9421 0-1.9675 9.8378c-.1271.6372-.6916 1.0997-1.3415 1.0997h-11.9218c-.6505 0-1.2145-.4625-1.3421-1.0991l-1.9675-9.8384z"/><path d="m32.2656 29.5312c.7552 0 1.3672-.612 1.3672-1.3671v-2.7344c0-.7552-.612-1.3672-1.3672-1.3672-.7551 0-1.3672.612-1.3672 1.3672v2.7344c0 .7551.6121 1.3671 1.3672 1.3671z"/><path d="m37.7344 29.5312c.7551 0 1.3672-.612 1.3672-1.3671v-2.7344c0-.7552-.6121-1.3672-1.3672-1.3672-.7552 0-1.3672.612-1.3672 1.3672v2.7344c0 .7551.612 1.3671 1.3672 1.3671z"/><path d="m4.10156 54.1406h24.06254v5.4688h-4.1016c-1.8254 0-3.5419.7113-4.8332 2.0027-1.2914 1.2913-2.0027 3.0078-2.0027 4.8332 0 .7552.612 1.3672 1.3672 1.3672h32.8124c.7552 0 1.3672-.612 1.3672-1.3672 0-3.7694-3.0665-6.8359-6.8359-6.8359h-4.1016v-5.4688h24.0625c1.0954 0 2.1251-.4267 2.9-1.2016s1.2016-1.8046 1.2016-2.8999v-43.75004c0-1.09535-.4267-2.12501-1.2016-2.89993s-1.8046-1.20163-2.9-1.20163h-61.79684c-1.09535 0-2.12501.42671-2.89993 1.20163-.774918.77492-1.20163 1.80458-1.20163 2.89993v43.75004c0 1.0953.426712 2.125 1.20163 2.8999.77492.7749 1.80458 1.2016 2.89993 1.2016zm45.70304 10.9375h-29.6108c.2008-.5698.5287-1.0921.9693-1.5327.7749-.7749 1.8046-1.2016 2.8994-1.2016h21.875c1.7827 0 3.3031 1.1428 3.8671 2.7343zm-10.703-5.4687h-8.2032v-5.4688h8.2032zm27.7635-8.6037c-.2585.2585-.6019.4005-.9667.4005h-61.79684c-.36476 0-.70816-.142-.96664-.4005-.25849-.2585-.40054-.6019-.40054-.9666v-6.836h64.53122v6.836c0 .3647-.142.7081-.4005.9666zm-63.73018-45.68328c.25848-.25849.60188-.40054.96664-.40054h61.79684c.3648 0 .7082.14205.9667.40054.2585.25848.4005.60188.4005.96664v34.17974h-64.53122v-34.17974c0-.36476.14205-.70816.40054-.96664z"/><path d="m63.1641 26.7969c.7551 0 1.3671-.6121 1.3671-1.3672v-10.9375c0-.7552-.612-1.3672-1.3671-1.3672-.7552 0-1.3672.612-1.3672 1.3672v10.9375c0 .7551.612 1.3672 1.3672 1.3672z"/></g></svg>

<svg width="70" height="70" viewBox="0 0 70 70" fill="none" xmlns="http://www.w3.org/2000/svg">
<path d="M63.1641 32.2656C63.9187 32.2656 64.5312 31.6531 64.5312 30.8984C64.5312 30.1438 63.9187 29.5312 63.1641 29.5312C62.4094 29.5312 61.7969 30.1438 61.7969 30.8984C61.7969 31.6531 62.4094 32.2656 63.1641 32.2656Z" fill="#66C4FF"/>
<path d="M35 45.9375C34.2454 45.9375 33.6328 46.5501 33.6328 47.3047C33.6328 48.0593 34.2454 48.6719 35 48.6719C35.7546 48.6719 36.3672 48.0593 36.3672 47.3047C36.3672 46.5501 35.7546 45.9375 35 45.9375Z" fill="#66C4FF"/>
<path d="M21.3281 21.3282H22.9415L25.0158 31.7028C25.3982 33.6131 27.0901 35 29.0388 35H40.9612C42.9099 35 44.6018 33.6131 44.9842 31.7022L47.0585 21.3282H48.6719C49.427 21.3282 50.0391 20.7161 50.0391 19.961C50.0391 19.2058 49.427 18.5938 48.6719 18.5938C47.5648 18.5938 43.17 18.5938 41.4541 18.5938L39.0316 11.3258C38.7923 10.6091 38.0185 10.2219 37.3023 10.4606C36.5856 10.6999 36.1984 11.4737 36.4371 12.1899L38.5718 18.5938H31.4282L33.5629 12.1899C33.8016 11.4737 33.4144 10.6999 32.6977 10.4606C31.9815 10.2219 31.2071 10.6091 30.9684 11.3258L28.5459 18.5938C27.3491 18.5938 22.8999 18.5938 21.3281 18.5938C20.573 18.5938 19.9609 19.2058 19.9609 19.961C19.9609 20.7161 20.573 21.3282 21.3281 21.3282ZM44.2702 21.3282L42.3027 31.166C42.1756 31.8032 41.6111 32.2657 40.9612 32.2657H29.0394C28.3889 32.2657 27.8249 31.8032 27.6973 31.1666L25.7298 21.3282H44.2702Z" fill="#66C4FF"/>
<path d="M32.2656 29.5312C33.0208 29.5312 33.6328 28.9192 33.6328 28.1641V25.4297C33.6328 24.6745 33.0208 24.0625 32.2656 24.0625C31.5105 24.0625 30.8984 24.6745 30.8984 25.4297V28.1641C30.8984 28.9192 31.5105 29.5312 32.2656 29.5312Z" fill="#66C4FF"/>
<path d="M37.7344 29.5312C38.4895 29.5312 39.1016 28.9192 39.1016 28.1641V25.4297C39.1016 24.6745 38.4895 24.0625 37.7344 24.0625C36.9792 24.0625 36.3672 24.6745 36.3672 25.4297V28.1641C36.3672 28.9192 36.9792 29.5312 37.7344 29.5312Z" fill="#66C4FF"/>
<path d="M4.10156 54.1406H28.1641V59.6094H24.0625C22.2371 59.6094 20.5206 60.3207 19.2293 61.6121C17.9379 62.9034 17.2266 64.6199 17.2266 66.4453C17.2266 67.2005 17.8386 67.8125 18.5938 67.8125H51.4062C52.1614 67.8125 52.7734 67.2005 52.7734 66.4453C52.7734 62.6759 49.7069 59.6094 45.9375 59.6094H41.8359V54.1406H65.8984C66.9938 54.1406 68.0235 53.7139 68.7984 52.939C69.5733 52.1641 70 51.1344 70 50.0391V6.28906C70 5.19371 69.5733 4.16405 68.7984 3.38913C68.0235 2.61421 66.9938 2.1875 65.8984 2.1875H4.10156C3.00621 2.1875 1.97655 2.61421 1.20163 3.38913C0.426712 4.16405 0 5.19371 0 6.28906V50.0391C0 51.1344 0.426712 52.1641 1.20163 52.939C1.97655 53.7139 3.00621 54.1406 4.10156 54.1406ZM49.8046 65.0781H20.1938C20.3946 64.5083 20.7225 63.986 21.1631 63.5454C21.938 62.7705 22.9677 62.3438 24.0625 62.3438H45.9375C47.7202 62.3438 49.2406 63.4866 49.8046 65.0781ZM39.1016 59.6094H30.8984V54.1406H39.1016V59.6094ZM66.8651 51.0057C66.6066 51.2642 66.2632 51.4062 65.8984 51.4062H4.10156C3.7368 51.4062 3.3934 51.2642 3.13492 51.0057C2.87643 50.7472 2.73438 50.4038 2.73438 50.0391V43.2031H67.2656V50.0391C67.2656 50.4038 67.1236 50.7472 66.8651 51.0057ZM3.13492 5.32242C3.3934 5.06393 3.7368 4.92188 4.10156 4.92188H65.8984C66.2632 4.92188 66.6066 5.06393 66.8651 5.32242C67.1236 5.5809 67.2656 5.9243 67.2656 6.28906V40.4688H2.73438V6.28906C2.73438 5.9243 2.87643 5.5809 3.13492 5.32242Z" fill="#66C4FF"/>
<path d="M63.1641 26.7969C63.9192 26.7969 64.5312 26.1848 64.5312 25.4297V14.4922C64.5312 13.737 63.9192 13.125 63.1641 13.125C62.4089 13.125 61.7969 13.737 61.7969 14.4922V25.4297C61.7969 26.1848 62.4089 26.7969 63.1641 26.7969Z" fill="#66C4FF"/>
</svg>
